;FLAVOR:UltiGCode
;TIME:4845
;MATERIAL:8378
;MATERIAL2:0
;NOZZLE_DIAMETER:0.4
;Generated with Cura_SteamEngine 3.1.0
M82 ; absolute extrusion mode

;LAYER_COUNT:26
;LAYER:0
M107
G0 F4500 X82.604 Y50.922 Z0.27
;TYPE:SKIRT
G1 F1800 X83.022 Y50.247 E0.07503
G1 X83.505 Y49.618 E0.14997
G1 X84.05 Y49.041 E0.22498
G1 X84.649 Y48.521 E0.29993
G1 X85.298 Y48.065 E0.37489
G1 X85.99 Y47.676 E0.44991
G1 X86.717 Y47.358 E0.5249
G1 X87.473 Y47.115 E0.59994
G1 X88.249 Y46.95 E0.67491
G1 X89.037 Y46.864 E0.74982
G1 X89.5 Y46.85 E0.79359
G1 X133.5 Y46.85 E4.95159
G1 X134.292 Y46.89 E5.02653
G1 X135.077 Y47.009 E5.10156
G1 X135.845 Y47.207 E5.17651
G1 X136.59 Y47.482 E5.25155
G1 X137.303 Y47.829 E5.32649
G1 X137.978 Y48.247 E5.40152
G1 X138.607 Y48.73 E5.47646
G1 X139.184 Y49.275 E5.55146
G1 X139.704 Y49.874 E5.62642
G1 X140.16 Y50.523 E5.70138
G1 X140.549 Y51.215 E5.7764
G1 X140.867 Y51.942 E5.85138
G1 X141.11 Y52.698 E5.92643
G1 X141.275 Y53.474 E6.0014
G1 X141.361 Y54.262 E6.0763
G1 X141.375 Y54.725 E6.12008
G1 X141.375 Y78.275 E8.34555
G1 X141.335 Y79.067 E8.42049
G1 X141.216 Y79.852 E8.49552
G1 X141.018 Y80.62 E8.57047
G1 X140.743 Y81.365 E8.64552
G1 X140.675 Y81.504 E8.66014
G1 X140.867 Y81.942 E8.70533
G1 X141.11 Y82.698 E8.78038
G1 X141.275 Y83.474 E8.85535
G1 X141.361 Y84.262 E8.93026
G1 X141.375 Y84.725 E8.97403
G1 X141.375 Y108.275 E11.1995
G1 X141.335 Y109.067 E11.27444
G1 X141.216 Y109.852 E11.34947
G1 X141.018 Y110.62 E11.42442
G1 X140.743 Y111.365 E11.49947
G1 X140.675 Y111.504 E11.51409
G1 X140.867 Y111.942 E11.55928
G1 X141.11 Y112.698 E11.63433
G1 X141.275 Y113.474 E11.7093
G1 X141.361 Y114.262 E11.78421
G1 X141.375 Y114.725 E11.82798
G1 X141.375 Y138.275 E14.05345
G1 X141.335 Y139.067 E14.12839
G1 X141.216 Y139.852 E14.20342
G1 X141.018 Y140.62 E14.27837
G1 X140.743 Y141.365 E14.35342
G1 X140.675 Y141.504 E14.36804
G1 X140.867 Y141.942 E14.41323
G1 X141.11 Y142.698 E14.48828
G1 X141.275 Y143.474 E14.56325
G1 X141.361 Y144.262 E14.63816
G1 X141.375 Y144.725 E14.68193
G1 X141.375 Y168.275 E16.9074
G1 X141.335 Y169.067 E16.98234
G1 X141.216 Y169.852 E17.05737
G1 X141.018 Y170.62 E17.13232
G1 X140.743 Y171.365 E17.20737
G1 X140.396 Y172.078 E17.2823
G1 X139.978 Y172.753 E17.35733
G1 X139.495 Y173.382 E17.43227
G1 X138.95 Y173.959 E17.50728
G1 X138.351 Y174.479 E17.58224
G1 X137.702 Y174.935 E17.65719
G1 X137.01 Y175.324 E17.73221
G1 X136.283 Y175.642 E17.8072
G1 X135.527 Y175.885 E17.88224
G1 X134.751 Y176.05 E17.95721
G1 X133.963 Y176.136 E18.03212
G1 X133.5 Y176.15 E18.07589
G1 X89.5 Y176.15 E22.23389
G1 X88.708 Y176.11 E22.30883
G1 X87.923 Y175.991 E22.38386
G1 X87.155 Y175.793 E22.45881
G1 X86.41 Y175.518 E22.53386
G1 X85.697 Y175.171 E22.60879
G1 X85.022 Y174.753 E22.68382
G1 X84.393 Y174.27 E22.75876
G1 X83.816 Y173.725 E22.83377
G1 X83.296 Y173.126 E22.90873
G1 X82.84 Y172.477 E22.98368
G1 X82.451 Y171.785 E23.0587
G1 X82.133 Y171.058 E23.13369
G1 X81.89 Y170.302 E23.20873
G1 X81.725 Y169.526 E23.2837
G1 X81.639 Y168.738 E23.35861
G1 X81.625 Y168.275 E23.40238
G1 X81.625 Y144.725 E25.62786
G1 X81.665 Y143.933 E25.7028
G1 X81.784 Y143.148 E25.77783
G1 X81.982 Y142.38 E25.85278
G1 X82.257 Y141.635 E25.92782
G1 X82.325 Y141.496 E25.94244
G1 X82.133 Y141.058 E25.98764
G1 X81.89 Y140.302 E26.06268
G1 X81.725 Y139.526 E26.13765
G1 X81.639 Y138.738 E26.21256
G1 X81.625 Y138.275 E26.25633
G1 X81.625 Y114.725 E28.48181
G1 X81.665 Y113.933 E28.55675
G1 X81.784 Y113.148 E28.63178
G1 X81.982 Y112.38 E28.70673
G1 X82.257 Y111.635 E28.78177
G1 X82.325 Y111.496 E28.79639
G1 X82.133 Y111.058 E28.84159
G1 X81.89 Y110.302 E28.91663
G1 X81.725 Y109.526 E28.9916
G1 X81.639 Y108.738 E29.06651
G1 X81.625 Y108.275 E29.11028
G1 X81.625 Y84.725 E31.33576
G1 X81.665 Y83.933 E31.4107
G1 X81.784 Y83.148 E31.48573
G1 X81.982 Y82.38 E31.56068
G1 X82.257 Y81.635 E31.63572
G1 X82.325 Y81.496 E31.65035
G1 X82.133 Y81.058 E31.69554
G1 X81.89 Y80.302 E31.77058
G1 X81.725 Y79.526 E31.84555
G1 X81.639 Y78.738 E31.92046
G1 X81.625 Y78.275 E31.96423
G1 X81.625 Y54.725 E34.18971
G1 X81.665 Y53.933 E34.26465
G1 X81.784 Y53.148 E34.33968
G1 X81.982 Y52.38 E34.41463
G1 X82.257 Y51.635 E34.48967
G1 X82.604 Y50.922 E34.56461
G0 F4500 X82.953 Y51.015
G1 F1800 X83.37 Y50.361 E34.6379
G1 X83.852 Y49.753 E34.71122
G1 X84.394 Y49.198 E34.78453
G1 X84.99 Y48.701 E34.85787
G1 X85.634 Y48.269 E34.93115
G1 X86.319 Y47.906 E35.00441
G1 X87.038 Y47.614 E35.07775
G1 X87.783 Y47.399 E35.15102
G1 X88.546 Y47.261 E35.22429
G1 X89.5 Y47.2 E35.31463
G1 X133.5 Y47.2 E39.47263
G1 X134.275 Y47.24 E39.54597
G1 X135.041 Y47.359 E39.61922
G1 X135.791 Y47.557 E39.69252
G1 X136.517 Y47.831 E39.76586
G1 X137.21 Y48.178 E39.8391
G1 X137.864 Y48.595 E39.91239
G1 X138.472 Y49.077 E39.98571
G1 X139.027 Y49.619 E40.05902
G1 X139.524 Y50.215 E40.13236
G1 X139.956 Y50.859 E40.20564
G1 X140.319 Y51.544 E40.2789
G1 X140.611 Y52.263 E40.35223
G1 X140.826 Y53.008 E40.42551
G1 X140.964 Y53.771 E40.49878
G1 X141.025 Y54.725 E40.58912
G1 X141.025 Y78.275 E42.81459
G1 X140.985 Y79.05 E42.88793
G1 X140.866 Y79.816 E42.96118
G1 X140.668 Y80.566 E43.03449
G1 X140.394 Y81.292 E43.10782
G1 X140.293 Y81.494 E43.12916
G1 X140.319 Y81.544 E43.13449
G1 X140.611 Y82.263 E43.20782
G1 X140.826 Y83.008 E43.2811
G1 X140.964 Y83.771 E43.35437
G1 X141.025 Y84.725 E43.44471
G1 X141.025 Y108.275 E45.67018
G1 X140.985 Y109.05 E45.74352
G1 X140.866 Y109.816 E45.81677
G1 X140.668 Y110.566 E45.89008
G1 X140.394 Y111.292 E45.96341
G1 X140.293 Y111.494 E45.98475
G1 X140.319 Y111.544 E45.99007
G1 X140.611 Y112.263 E46.06341
G1 X140.826 Y113.008 E46.13668
G1 X140.964 Y113.771 E46.20996
G1 X141.025 Y114.725 E46.3003
G1 X141.025 Y138.275 E48.52577
G1 X140.985 Y139.05 E48.59911
G1 X140.866 Y139.816 E48.67236
G1 X140.668 Y140.566 E48.74566
G1 X140.394 Y141.292 E48.81899
G1 X140.293 Y141.494 E48.84034
G1 X140.319 Y141.544 E48.84566
G1 X140.611 Y142.263 E48.919
G1 X140.826 Y143.008 E48.99227
G1 X140.964 Y143.771 E49.06555
G1 X141.025 Y144.725 E49.15588
G1 X141.025 Y168.275 E51.38136
G1 X140.985 Y169.05 E51.45469
G1 X140.866 Y169.816 E51.52795
G1 X140.668 Y170.566 E51.60125
G1 X140.394 Y171.292 E51.67458
G1 X140.047 Y171.985 E51.74782
G1 X139.63 Y172.639 E51.82112
G1 X139.148 Y173.247 E51.89444
G1 X138.606 Y173.802 E51.96775
G1 X138.01 Y174.299 E52.04108
G1 X137.366 Y174.731 E52.11437
G1 X136.681 Y175.094 E52.18763
G1 X135.962 Y175.386 E52.26096
G1 X135.217 Y175.601 E52.33424
G1 X134.454 Y175.739 E52.40751
G1 X133.5 Y175.8 E52.49785
G1 X89.5 Y175.8 E56.65585
G1 X88.725 Y175.76 E56.72918
G1 X87.959 Y175.641 E56.80244
G1 X87.209 Y175.443 E56.87574
G1 X86.483 Y175.169 E56.94907
G1 X85.79 Y174.822 E57.02231
G1 X85.136 Y174.405 E57.09561
G1 X84.528 Y173.923 E57.16893
G1 X83.973 Y173.381 E57.24224
G1 X83.476 Y172.785 E57.31557
G1 X83.044 Y172.141 E57.38885
G1 X82.681 Y171.456 E57.46211
G1 X82.389 Y170.737 E57.53545
G1 X82.174 Y169.992 E57.60872
G1 X82.036 Y169.229 E57.682
G1 X81.975 Y168.275 E57.77233
G1 X81.975 Y144.725 E59.99781
G1 X82.015 Y143.95 E60.07114
G1 X82.134 Y143.184 E60.1444
G1 X82.332 Y142.434 E60.2177
G1 X82.606 Y141.708 E60.29103
G1 X82.707 Y141.506 E60.31238
G1 X82.681 Y141.456 E60.3177
G1 X82.389 Y140.737 E60.39104
G1 X82.174 Y139.992 E60.46431
G1 X82.036 Y139.229 E60.53759
G1 X81.975 Y138.275 E60.62792
G1 X81.975 Y114.725 E62.8534
G1 X82.015 Y113.95 E62.92673
G1 X82.134 Y113.184 E62.99999
G1 X82.332 Y112.434 E63.07329
G1 X82.606 Y111.708 E63.14662
G1 X82.707 Y111.506 E63.16796
G1 X82.681 Y111.456 E63.17329
G1 X82.389 Y110.737 E63.24662
G1 X82.174 Y109.992 E63.3199
G1 X82.036 Y109.229 E63.39317
G1 X81.975 Y108.275 E63.48351
G1 X81.975 Y84.725 E65.70899
G1 X82.015 Y83.95 E65.78232
G1 X82.134 Y83.184 E65.85558
G1 X82.332 Y82.434 E65.92888
G1 X82.606 Y81.708 E66.00221
G1 X82.707 Y81.506 E66.02355
G1 X82.681 Y81.456 E66.02888
G1 X82.389 Y80.737 E66.10221
G1 X82.174 Y79.992 E66.17549
G1 X82.036 Y79.229 E66.24876
G1 X81.975 Y78.275 E66.3391
G1 X81.975 Y54.725 E68.56457
G1 X82.015 Y53.95 E68.63791
G1 X82.134 Y53.184 E68.71116
G1 X82.332 Y52.434 E68.78447
G1 X82.606 Y51.708 E68.8578
G1 X82.953 Y51.015 E68.93104
G0 F4500 X83.302 Y51.11
G1 F1800 X83.718 Y50.477 E69.00262
G1 X84.198 Y49.891 E69.0742
G1 X84.737 Y49.359 E69.14577
G1 X85.329 Y48.887 E69.21732
G1 X85.968 Y48.48 E69.28891
G1 X86.646 Y48.142 E69.3605
G1 X87.355 Y47.878 E69.432
G1 X88.089 Y47.69 E69.5036
G1 X88.838 Y47.581 E69.57512
G1 X89.5 Y47.55 E69.63775
G1 X133.5 Y47.55 E73.79575
G1 X134.256 Y47.59 E73.86729
G1 X135.004 Y47.709 E73.93887
G1 X135.735 Y47.907 E74.01044
G1 X136.442 Y48.181 E74.08209
G1 X137.115 Y48.527 E74.1536
G1 X137.748 Y48.943 E74.22518
G1 X138.334 Y49.423 E74.29677
G1 X138.866 Y49.962 E74.36833
G1 X139.338 Y50.554 E74.43988
G1 X139.745 Y51.193 E74.51148
G1 X140.083 Y51.871 E74.58307
G1 X140.347 Y52.58 E74.65456
G1 X140.535 Y53.314 E74.72616
G1 X140.644 Y54.063 E74.79769
G1 X140.675 Y54.725 E74.86032
G1 X140.675 Y78.275 E77.08579
G1 X140.635 Y79.031 E77.15733
G1 X140.516 Y79.779 E77.22891
G1 X140.318 Y80.51 E77.30048
G1 X140.044 Y81.217 E77.37213
G1 X139.898 Y81.5 E77.40222
G1 X140.083 Y81.871 E77.4414
G1 X140.347 Y82.58 E77.51289
G1 X140.535 Y83.314 E77.5845
G1 X140.644 Y84.063 E77.65602
G1 X140.675 Y84.725 E77.71865
G1 X140.675 Y108.275 E79.94413
G1 X140.635 Y109.031 E80.01567
G1 X140.516 Y109.779 E80.08724
G1 X140.318 Y110.51 E80.15881
G1 X140.044 Y111.217 E80.23046
G1 X139.898 Y111.5 E80.26056
G1 X140.083 Y111.871 E80.29973
G1 X140.347 Y112.58 E80.37123
G1 X140.535 Y113.314 E80.44283
G1 X140.644 Y114.063 E80.51436
G1 X140.675 Y114.725 E80.57698
G1 X140.675 Y138.275 E82.80246
G1 X140.635 Y139.031 E82.874
G1 X140.516 Y139.779 E82.94558
G1 X140.318 Y140.51 E83.01714
G1 X140.044 Y141.217 E83.0888
G1 X139.898 Y141.5 E83.11889
G1 X140.083 Y141.871 E83.15807
G1 X140.347 Y142.58 E83.22956
G1 X140.535 Y143.314 E83.30116
G1 X140.644 Y144.063 E83.37269
G1 X140.675 Y144.725 E83.43532
G1 X140.675 Y168.275 E85.66079
G1 X140.635 Y169.031 E85.73233
G1 X140.516 Y169.779 E85.80391
G1 X140.318 Y170.51 E85.87548
G1 X140.044 Y171.217 E85.94713
G1 X139.698 Y171.89 E86.01864
G1 X139.282 Y172.523 E86.09022
G1 X138.802 Y173.109 E86.16181
G1 X138.263 Y173.641 E86.23337
G1 X137.671 Y174.113 E86.30492
G1 X137.032 Y174.52 E86.37652
G1 X136.354 Y174.858 E86.44811
G1 X135.645 Y175.122 E86.5196
G1 X134.911 Y175.31 E86.5912
G1 X134.162 Y175.419 E86.66273
G1 X133.5 Y175.45 E86.72536
G1 X89.5 Y175.45 E90.88336
G1 X88.744 Y175.41 E90.9549
G1 X87.996 Y175.291 E91.02648
G1 X87.265 Y175.093 E91.09804
G1 X86.558 Y174.819 E91.1697
G1 X85.885 Y174.473 E91.24121
G1 X85.252 Y174.057 E91.31279
G1 X84.666 Y173.577 E91.38437
G1 X84.134 Y173.038 E91.45594
G1 X83.662 Y172.446 E91.52749
G1 X83.255 Y171.807 E91.59908
G1 X82.917 Y171.129 E91.67067
G1 X82.653 Y170.42 E91.74217
G1 X82.465 Y169.686 E91.81377
G1 X82.356 Y168.937 E91.8853
G1 X82.325 Y168.275 E91.94792
G1 X82.325 Y144.725 E94.1734
G1 X82.365 Y143.969 E94.24494
G1 X82.484 Y143.221 E94.31652
G1 X82.682 Y142.49 E94.38808
G1 X82.956 Y141.783 E94.45974
G1 X83.102 Y141.5 E94.48983
G1 X82.917 Y141.129 E94.52901
G1 X82.653 Y140.42 E94.6005
G1 X82.465 Y139.686 E94.6721
G1 X82.356 Y138.937 E94.74363
G1 X82.325 Y138.275 E94.80626
G1 X82.325 Y114.725 E97.03173
G1 X82.365 Y113.969 E97.10327
G1 X82.484 Y113.221 E97.17485
G1 X82.682 Y112.49 E97.24642
G1 X82.956 Y111.783 E97.31807
G1 X83.102 Y111.5 E97.34816
G1 X82.917 Y111.129 E97.38734
G1 X82.653 Y110.42 E97.45884
G1 X82.465 Y109.686 E97.53044
G1 X82.356 Y108.937 E97.60196
G1 X82.325 Y108.275 E97.66459
G1 X82.325 Y84.725 E99.89007
G1 X82.365 Y83.969 E99.96161
G1 X82.484 Y83.221 E100.03318
G1 X82.682 Y82.49 E100.10475
G1 X82.956 Y81.783 E100.1764
G1 X83.102 Y81.5 E100.2065
G1 X82.917 Y81.129 E100.24567
G1 X82.653 Y80.42 E100.31717
G1 X82.465 Y79.686 E100.38877
G1 X82.356 Y78.937 E100.4603
G1 X82.325 Y78.275 E100.52292
G1 X82.325 Y54.725 E102.7484
G1 X82.365 Y53.969 E102.81994
G1 X82.484 Y53.221 E102.89152
G1 X82.682 Y52.49 E102.96308
G1 X82.956 Y51.783 E103.03474
G1 X83.302 Y51.11 E103.10625
G0 F4500 X83.651 Y51.208
G1 F1800 X84.065 Y50.596 E103.17607
G1 X84.543 Y50.033 E103.24587
G1 X85.079 Y49.525 E103.31565
G1 X85.667 Y49.078 E103.38545
G1 X86.3 Y48.697 E103.45527
G1 X86.97 Y48.386 E103.52507
G1 X87.67 Y48.15 E103.59488
G1 X88.391 Y47.991 E103.66465
G1 X89.126 Y47.91 E103.73453
G1 X89.5 Y47.9 E103.76989
G1 X133.5 Y47.9 E107.92789
G1 X134.238 Y47.94 E107.99773
G1 X134.966 Y48.059 E108.06744
G1 X135.678 Y48.257 E108.13728
G1 X136.364 Y48.53 E108.20705
G1 X137.017 Y48.876 E108.27688
G1 X137.629 Y49.29 E108.34671
G1 X138.192 Y49.768 E108.4165
G1 X138.7 Y50.304 E108.48629
G1 X139.147 Y50.892 E108.55609
G1 X139.528 Y51.525 E108.62591
G1 X139.839 Y52.195 E108.69571
G1 X140.075 Y52.895 E108.76552
G1 X140.234 Y53.616 E108.83529
G1 X140.315 Y54.351 E108.90517
G1 X140.325 Y54.725 E108.94052
G1 X140.325 Y78.275 E111.166
G1 X140.285 Y79.013 E111.23584
G1 X140.166 Y79.741 E111.30555
G1 X139.968 Y80.453 E111.37539
G1 X139.695 Y81.139 E111.44516
G1 X139.508 Y81.492 E111.48291
G1 X139.528 Y81.525 E111.48656
G1 X139.839 Y82.195 E111.55636
G1 X140.075 Y82.895 E111.62617
G1 X140.234 Y83.616 E111.69594
G1 X140.315 Y84.351 E111.76582
G1 X140.325 Y84.725 E111.80117
G1 X140.325 Y108.275 E114.02665
G1 X140.285 Y109.013 E114.09649
G1 X140.166 Y109.741 E114.1662
G1 X139.968 Y110.453 E114.23604
G1 X139.695 Y111.139 E114.30581
G1 X139.508 Y111.492 E114.34356
G1 X139.528 Y111.525 E114.34721
G1 X139.839 Y112.195 E114.41701
G1 X140.075 Y112.895 E114.48682
G1 X140.234 Y113.616 E114.55659
G1 X140.315 Y114.351 E114.62647
G1 X140.325 Y114.725 E114.66182
G1 X140.325 Y138.275 E116.8873
G1 X140.285 Y139.013 E116.95714
G1 X140.166 Y139.741 E117.02685
G1 X139.968 Y140.453 E117.09669
G1 X139.695 Y141.139 E117.16646
G1 X139.508 Y141.492 E117.20421
G1 X139.528 Y141.525 E117.20786
G1 X139.839 Y142.195 E117.27766
G1 X140.075 Y142.895 E117.34747
G1 X140.234 Y143.616 E117.41724
G1 X140.315 Y144.351 E117.48712
G1 X140.325 Y144.725 E117.52247
G1 X140.325 Y168.275 E119.74795
G1 X140.285 Y169.013 E119.81779
G1 X140.166 Y169.741 E119.8875
G1 X139.968 Y170.453 E119.95734
G1 X139.695 Y171.139 E120.02711
G1 X139.349 Y171.792 E120.09695
G1 X138.935 Y172.404 E120.16677
G1 X138.457 Y172.967 E120.23656
G1 X137.921 Y173.475 E120.30635
G1 X137.333 Y173.922 E120.37615
G1 X136.7 Y174.303 E120.44597
G1 X136.03 Y174.614 E120.51577
G1 X135.33 Y174.85 E120.58558
G1 X134.609 Y175.009 E120.65535
G1 X133.874 Y175.09 E120.72523
G1 X133.5 Y175.1 E120.76058
G1 X89.5 Y175.1 E124.91858
G1 X88.762 Y175.06 E124.98843
G1 X88.034 Y174.941 E125.05814
G1 X87.322 Y174.743 E125.12797
G1 X86.636 Y174.47 E125.19774
G1 X85.983 Y174.124 E125.26758
G1 X85.371 Y173.71 E125.3374
G1 X84.808 Y173.232 E125.4072
G1 X84.3 Y172.696 E125.47698
G1 X83.853 Y172.108 E125.54678
G1 X83.472 Y171.475 E125.6166
G1 X83.161 Y170.805 E125.6864
G1 X82.925 Y170.105 E125.75621
G1 X82.766 Y169.384 E125.82598
G1 X82.685 Y168.649 E125.89586
G1 X82.675 Y168.275 E125.93122
G1 X82.675 Y144.725 E128.15669
G1 X82.715 Y143.987 E128.22654
G1 X82.834 Y143.259 E128.29625
G1 X83.032 Y142.547 E128.36608
G1 X83.305 Y141.861 E128.43585
G1 X83.492 Y141.508 E128.47361
G1 X83.472 Y141.475 E128.47725
G1 X83.161 Y140.805 E128.54706
G1 X82.925 Y140.105 E128.61686
G1 X82.766 Y139.384 E128.68664
G1 X82.685 Y138.649 E128.75651
G1 X82.675 Y138.275 E128.79187
G1 X82.675 Y114.725 E131.01734
G1 X82.715 Y113.987 E131.08719
G1 X82.834 Y113.259 E131.1569
G1 X83.032 Y112.547 E131.22673
G1 X83.305 Y111.861 E131.29651
G1 X83.492 Y111.508 E131.33426
G1 X83.472 Y111.475 E131.3379
G1 X83.161 Y110.805 E131.40771
G1 X82.925 Y110.105 E131.47751
G1 X82.766 Y109.384 E131.54729
G1 X82.685 Y108.649 E131.61716
G1 X82.675 Y108.275 E131.65252
G1 X82.675 Y84.725 E133.87799
G1 X82.715 Y83.987 E133.94784
G1 X82.834 Y83.259 E134.01755
G1 X83.032 Y82.547 E134.08738
G1 X83.305 Y81.861 E134.15716
G1 X83.492 Y81.508 E134.19491
G1 X83.472 Y81.475 E134.19855
G1 X83.161 Y80.805 E134.26836
G1 X82.925 Y80.105 E134.33816
G1 X82.766 Y79.384 E134.40794
G1 X82.685 Y78.649 E134.47781
G1 X82.675 Y78.275 E134.51317
